packages/core/src/svgs/tokens/mono/FLUID.svg

<svg width="24" height="24" viewBox="0 0 24 24" fill="none" xmlns="http://www.w3.org/2000/svg">
<path d="M18.4678 7.66917C18.4678 6.05754 17.7165 4.39744 17.4379 3.76733C18.4497 4.50044 21.994 6.52406 21.994 12.6313C21.994 19.4292 15.5838 21.7073 12.3727 21.9981H6.12012V20.5743C6.12012 16.3938 10.8157 14.9275 14.1783 13.4552C17.5347 11.9891 18.4739 9.69281 18.4739 7.66917H18.4678Z" fill="white"/>
<path d="M6.11982 21.877V20.5742C6.11982 20.3198 6.13194 20.0714 6.1683 19.8351C7.81627 16.4543 11.2152 15.5153 12.1423 15.388C13.1117 15.2487 17.8496 14.2854 20.061 13.1342C21.2546 12.5161 21.6787 11.2135 21.7636 10.1047C21.9089 10.856 21.9937 11.6983 21.9937 12.6313C21.9937 13.6975 21.8362 14.6549 21.5576 15.5092L12.6027 21.9072L12.2271 21.9981H6.25917C6.20789 21.9612 6.15931 21.9206 6.11377 21.877H6.11982Z" fill="white"/>
<path d="M21.994 12.8374C21.8607 19.4717 15.5475 21.7074 12.3727 21.9982H6.12012V21.665L6.16859 21.2651C6.90775 16.4908 13.1664 15.6607 17.4923 15.4789C20.2188 15.3578 21.5094 13.9582 22.0001 12.8374H21.994Z" fill="white"/>
<path d="M2 11.0801V18.4718C3.28445 15.7332 7.31957 14.0913 9.4705 13.4067C11.6274 12.722 13.76 11.8557 13.76 10.8983C13.76 9.94109 10.8216 9.57763 10.8216 8.62028C10.8216 8.20828 11.4456 7.251 12.7301 6.43308C14.0144 5.60908 15.5231 4.28828 15.5231 3.42188C15.5231 2.21618 12.8027 1.97383 11.4456 2.00413C4.72643 2.00413 2 8.48699 2 11.0801Z" fill="white"/>
<path d="M2 18.4719V11.0801C2 9.68666 2.78763 7.17833 4.55072 5.14866C8.22232 3.69456 13.6449 1.81633 13.6449 2.87056C13.6449 4.08231 11.9 5.23348 9.59773 6.74817C9.03423 7.1238 8.43439 7.51157 7.82245 7.93568C4.7022 10.0805 3.64797 11.3529 3.64797 13.3643C3.64797 14.5518 3.98726 15.4122 4.28414 15.9029C3.30263 16.6179 2.46652 17.4721 2 18.4719Z" fill="white"/>
<path d="M12.9058 2.0642C13.2693 2.30049 13.554 2.56707 13.554 2.82761C13.554 3.46377 12.4513 4.88153 9.10689 6.38408C5.76854 7.88666 2.01817 10.2496 2 12.6125V11.0796C2 8.48648 4.73248 2.00361 11.4456 2.00361C11.8455 1.99756 12.3665 2.00968 12.8997 2.0642H12.9058Z" fill="white"/>
</svg>

<svg xmlns="http://www.w3.org/2000/svg" width="24" height="24" fill="none" viewBox="0 0 24 24">
    <path fill="#fff" d="M18.468 7.67c0-1.612-.751-3.273-1.03-3.903 1.012.733 4.556 2.757 4.556 8.864 0 6.798-6.41 9.076-9.621 9.367H6.12v-1.424c0-4.18 4.696-5.647 8.058-7.119 3.357-1.466 4.296-3.762 4.296-5.786z"/>
    <path fill="#fff" d="M6.12 21.877v-1.303c0-.254.012-.503.048-.739 1.648-3.38 5.047-4.32 5.974-4.447.97-.14 5.708-1.103 7.919-2.254 1.194-.618 1.618-1.92 1.703-3.03.145.752.23 1.594.23 2.527a9.2 9.2 0 0 1-.436 2.878l-8.955 6.398-.376.091H6.26a1.4 1.4 0 0 1-.145-.121z"/>
    <path fill="#fff" d="M21.994 12.837c-.133 6.635-6.446 8.87-9.621 9.161H6.12v-.333l.049-.4c.739-4.774 6.997-5.604 11.323-5.786 2.727-.121 4.017-1.52 4.508-2.642zM2 11.08v7.392c1.284-2.739 5.32-4.38 7.47-5.065 2.157-.685 4.29-1.551 4.29-2.509 0-.957-2.938-1.32-2.938-2.278 0-.412.624-1.369 1.908-2.187 1.284-.824 2.793-2.145 2.793-3.011 0-1.206-2.72-1.448-4.077-1.418C4.726 2.004 2 8.487 2 11.08"/>
    <path fill="#fff" d="M2 18.472V11.08c0-1.393.788-3.902 2.55-5.931 3.672-1.454 9.095-3.333 9.095-2.278 0 1.211-1.745 2.362-4.047 3.877-.564.376-1.164.764-1.776 1.188-3.12 2.145-4.174 3.417-4.174 5.428 0 1.188.34 2.048.636 2.539-.981.715-1.817 1.57-2.284 2.569"/>
    <path fill="#fff" d="M12.906 2.064c.363.236.648.503.648.764 0 .636-1.103 2.054-4.447 3.556C5.769 7.887 2.018 10.25 2 12.613V11.08c0-2.594 2.732-9.076 9.446-9.076.4-.006.92.006 1.454.06z"/>
</svg>
